X: 3002
T: Mrs FRANCIS WEMYSS
Q:"Reel."
R: Reel.
%R:reel
B: James Kerr "Merry Melodies" v.3 p.3 #2
Z: 2016 John Chambers <jc:trillian.mit.edu>
M: C
L: 1/8
K: D
vA |\
FDFA d2(cd) | edcB AGFE |\
FDFA d2(cd) |[1 egec d3 :|[2 egec defg |]
|:\
afdf a2(gf) | gfed cefg |\
[1 afdf afdf | gece defg |\
[2 afge fdec | Agfe d3 |]

%%sep 1 1 500
%%sep 1 1 500

